X: 5116
T: Bridget Cruise
R: waltz
M: 3/4
K: Gmixolydian
e2degf|e2degf|d2eB A/B/A/G/|D>E GA G2:|
DEGABG|A2 (3ABd e/d/B/A/|A>B de f/e/d/B/|A2 (3def e2|
e2degf|e2degf|d2eB A/B/A/G/|D>E GA G2||

